X: 810
T: Alan MacPherson Of Mosspark
R: jig
M: 6/8
K: Gmajor
|:g|egd eBd|G3 gBd|cBB BdG|BAA A2 g|
egd eBd|G3 gBd|cBB dB/c/d|G3 G2:|
|:d|g2 d e>fg|e2 g edB|cBB BdG|BAA A2 d|
[1 g2 d e>fg|e2 g edB|cBB dB/c/d|G3 G2:|
[2 egd eBd|G3 gBd|cBB dB/c/d|G3 G2||
|:g|G2 B G3|dB/c/d edB|cBB BdG|BAA A2 g|
G2 B G3|dB/c/d edB|cBB dB/c/d|G3 G2:|
|:d|g3 g2 d|gde BdG|cBB BdG|BAA A2d|
g3 g2 d|gde BdG|cBB dB/c/d|G3 G2:|
[2 G2 B G3|dB/c/d edB|cBB dB/c/d|G3 G3||

